Simply-Blue-Circles/symbolic/categories/applications-electronics-symbolic.svg

<svg xmlns="http://www.w3.org/2000/svg" width="24" height="24" viewBox="0 0 6.35 6.35"><path d="M.96.94V3.6l1.52.67.04-.04a.35.35 0 0 1 .27-.12c.18 0 .34.15.34.35 0 .2-.16.36-.34.36a.35.35 0 0 1-.35-.31v-.03L.95 3.84v1.57H5.4V.94h-.7v1.35l.03.02c.1.06.15.17.15.28a.33.33 0 0 1-.33.33.33.33 0 0 1-.33-.33c0-.14.09-.28.23-.31l.04-.02V.94h-2.4V2.4h.71l.01-.03a.35.35 0 0 1 .32-.23c.19 0 .34.16.34.35a.34.34 0 1 1-.64.16l-.02-.03h-.94V.93zm2.16 1.4a.18.18 0 0 0-.18.18.18.18 0 0 0 .18.17.18.18 0 0 0 .17-.17.18.18 0 0 0-.17-.17zm1.41.07a.18.18 0 0 0-.17.17.18.18 0 0 0 .17.18.18.18 0 0 0 .18-.18.18.18 0 0 0-.18-.17zM2.78 4.29a.18.18 0 0 0-.18.17c0 .1.07.18.17.18a.18.18 0 0 0 .19-.18.18.18 0 0 0-.18-.17z" fill="gray"/></svg>

<?xml version="1.0" encoding="UTF-8" standalone="no"?>
<svg
   xmlns:dc="http://purl.org/dc/elements/1.1/"
   xmlns:cc="http://creativecommons.org/ns#"
   xmlns:rdf="http://www.w3.org/1999/02/22-rdf-syntax-ns#"
   xmlns:svg="http://www.w3.org/2000/svg"
   xmlns="http://www.w3.org/2000/svg"
   xmlns:sodipodi="http://sodipodi.sourceforge.net/DTD/sodipodi-0.dtd"
   xmlns:inkscape="http://www.inkscape.org/namespaces/inkscape"
   width="24"
   height="24"
   viewBox="0 0 6.35 6.35"
   version="1.1"
   id="svg4"
   sodipodi:docname="applications-electronics-symbolic.svg"
   inkscape:version="0.92.4 (5da689c313, 2019-01-14)">
  <metadata
     id="metadata10">
    <rdf:RDF>
      <cc:Work
         rdf:about="">
        <dc:format>image/svg+xml</dc:format>
        <dc:type
           rdf:resource="http://purl.org/dc/dcmitype/StillImage" />
        <dc:title></dc:title>
      </cc:Work>
    </rdf:RDF>
  </metadata>
  <defs
     id="defs8" />
  <sodipodi:namedview
     pagecolor="#ffffff"
     bordercolor="#666666"
     borderopacity="1"
     objecttolerance="10"
     gridtolerance="10"
     guidetolerance="10"
     inkscape:pageopacity="0"
     inkscape:pageshadow="2"
     inkscape:window-width="1085"
     inkscape:window-height="480"
     id="namedview6"
     showgrid="false"
     inkscape:zoom="9.8333333"
     inkscape:cx="12"
     inkscape:cy="12"
     inkscape:window-x="0"
     inkscape:window-y="25"
     inkscape:window-maximized="0"
     inkscape:current-layer="svg4" />
  <path
     d="M 0.96000003,0.94 V 3.6 L 2.48,4.27 2.52,4.23 A 0.35,0.35 0 0 1 2.79,4.11 c 0.18,0 0.34,0.15 0.34,0.35 0,0.2 -0.16,0.36 -0.34,0.36 A 0.35,0.35 0 0 1 2.44,4.51 V 4.48 L 0.95000003,3.84 V 5.41 H 5.4 V 0.94 H 4.7 v 1.35 l 0.03,0.02 c 0.1,0.06 0.15,0.17 0.15,0.28 A 0.33,0.33 0 0 1 4.55,2.92 0.33,0.33 0 0 1 4.22,2.59 C 4.22,2.45 4.31,2.31 4.45,2.28 L 4.49,2.26 V 0.94 H 2.09 V 2.4 H 2.8 L 2.81,2.37 A 0.35,0.35 0 0 1 3.13,2.14 c 0.19,0 0.34,0.16 0.34,0.35 A 0.34,0.34 0 1 1 2.83,2.65 L 2.81,2.62 H 1.87 V 0.93 Z M 3.12,2.34 A 0.18,0.18 0 0 0 2.94,2.52 0.18,0.18 0 0 0 3.12,2.69 0.18,0.18 0 0 0 3.29,2.52 0.18,0.18 0 0 0 3.12,2.35 Z M 4.53,2.41 A 0.18,0.18 0 0 0 4.36,2.58 0.18,0.18 0 0 0 4.53,2.76 0.18,0.18 0 0 0 4.71,2.58 0.18,0.18 0 0 0 4.53,2.41 Z M 2.78,4.29 A 0.18,0.18 0 0 0 2.6,4.46 c 0,0.1 0.07,0.18 0.17,0.18 A 0.18,0.18 0 0 0 2.96,4.46 0.18,0.18 0 0 0 2.78,4.29 Z"
     id="path2"
     inkscape:connector-curvature="0"
     style="fill:#808080" />
</svg>
